static/app-icons/light-theme/WatsonOpenScale.svg

<svg xmlns="http://www.w3.org/2000/svg" xmlns:xlink="http://www.w3.org/1999/xlink" viewBox="0 0 32 32"><defs><linearGradient id="linear-gradient" x1="14.959" y1="5.587" x2="32.021" y2="10.159" gradientTransform="translate(-1.49 2.127)" gradientUnits="userSpaceOnUse"><stop offset=".3"/><stop offset=".8" stop-opacity="0"/></linearGradient><linearGradient id="linear-gradient-2" x1="16" y1="31" x2="16" y2="5" gradientUnits="userSpaceOnUse"><stop offset=".6" stop-color="#fff"/><stop offset=".9" stop-color="#fff" stop-opacity="0"/></linearGradient><linearGradient id="linear-gradient-3" x1="-487.886" y1="-4263.873" x2="-487.886" y2="-4289.873" gradientTransform="scale(-1) rotate(-58.95 3513.885 -2564.968)" xlink:href="#linear-gradient-2"/><linearGradient id="linear-gradient-4" x1="8.289" y1="22.439" x2="28.029" y2="11.042" gradientTransform="rotate(30.258 18.16 16.74)" gradientUnits="userSpaceOnUse"><stop offset=".5" stop-color="#fff"/><stop offset=".9" stop-color="#fff" stop-opacity="0"/></linearGradient><linearGradient id="linear-gradient-5" y1="32" x2="32" gradientUnits="userSpaceOnUse"><stop offset=".1" stop-color="#a56eff"/><stop offset=".9" stop-color="#0f62fe"/></linearGradient><style>.cls-8{fill:#001d6c}</style><mask id="mask" x="0" y="0" width="32" height="32" maskUnits="userSpaceOnUse"><path d="M16 3v2a12.92 12.92 0 0112.809 15.135l1.971.328A14.91 14.91 0 0016 3z" fill="#fff"/><path fill="url(#linear-gradient)" d="M15 2h14v16H15z"/><path d="M16 31a1 1 0 01-1-1V6a1 1 0 012 0v24a1 1 0 01-1 1z" fill="url(#linear-gradient-2)"/><path d="M4.861 11.3a1 1 0 011.373-.341L26.8 23.33a1 1 0 01-1.032 1.714L5.2 12.67a1 1 0 01-.339-1.37z" fill="url(#linear-gradient-3)"/><path transform="rotate(-30.258 18.16 16.74)" fill="url(#linear-gradient-4)" d="M6.767 15.74h22.785v2H6.767z"/></mask></defs><g id="Layer_2" data-name="Layer 2"><g id="Light_theme_icons" data-name="Light theme icons"><g mask="url(#mask)"><path fill="url(#linear-gradient-5)" d="M0 0h32v32H0z"/></g><path class="cls-8" d="M28 28a3 3 0 113-3 3 3 0 01-3 3zm0-4a1 1 0 101 1 1 1 0 00-1-1zM16 7a3 3 0 113-3 3 3 0 01-3 3zm0-4a1 1 0 101 1 1 1 0 00-1-1zM4 28a3 3 0 113-3 3 3 0 01-3 3zm0-4a1 1 0 101 1 1 1 0 00-1-1z"/></g></g></svg>

<svg xmlns="http://www.w3.org/2000/svg" xmlns:xlink="http://www.w3.org/1999/xlink" viewBox="0 0 32 32"><defs><style>.cls-1{fill:#fff;}.cls-2{fill:url(#linear-gradient);}.cls-3{fill:url(#linear-gradient-2);}.cls-4{fill:url(#linear-gradient-3);}.cls-5{fill:url(#linear-gradient-4);}.cls-6{mask:url(#mask);}.cls-7{fill:url(#linear-gradient-5);}.cls-8{fill:#001d6c;}</style><linearGradient id="linear-gradient" x1="14.959" y1="5.587" x2="32.021" y2="10.159" gradientTransform="translate(-1.49 2.127)" gradientUnits="userSpaceOnUse"><stop offset="0.3"/><stop offset="0.8" stop-opacity="0"/></linearGradient><linearGradient id="linear-gradient-2" x1="16" y1="31" x2="16" y2="5" gradientUnits="userSpaceOnUse"><stop offset="0.6" stop-color="#fff"/><stop offset="0.9" stop-color="#fff" stop-opacity="0"/></linearGradient><linearGradient id="linear-gradient-3" x1="-487.886" y1="-4263.873" x2="-487.886" y2="-4289.873" gradientTransform="matrix(-0.516, 0.857, -0.857, -0.516, -3900.136, -1769.051)" xlink:href="#linear-gradient-2"/><linearGradient id="linear-gradient-4" x1="8.289" y1="22.439" x2="28.029" y2="11.042" gradientTransform="translate(10.909 -6.87) rotate(30.258)" gradientUnits="userSpaceOnUse"><stop offset="0.5" stop-color="#fff"/><stop offset="0.9" stop-color="#fff" stop-opacity="0"/></linearGradient><mask id="mask" x="0" y="0" width="32" height="32" maskUnits="userSpaceOnUse"><path class="cls-1" d="M16,3V5A12.92,12.92,0,0,1,28.809,20.135l1.971.328A14.91,14.91,0,0,0,16,3Z"/><rect class="cls-2" x="15" y="2" width="14" height="16"/><path class="cls-3" d="M16,31a1,1,0,0,1-1-1V6a1,1,0,0,1,2,0V30A1,1,0,0,1,16,31Z"/><path class="cls-4" d="M4.861,11.3a1,1,0,0,1,1.373-.341L26.8,23.33a1,1,0,0,1-1.032,1.714L5.2,12.67A1,1,0,0,1,4.861,11.3Z"/><rect class="cls-5" x="6.767" y="15.74" width="22.785" height="2" transform="translate(-5.961 11.431) rotate(-30.258)"/></mask><linearGradient id="linear-gradient-5" y1="32" x2="32" gradientUnits="userSpaceOnUse"><stop offset="0.1" stop-color="#a56eff"/><stop offset="0.9" stop-color="#0f62fe"/></linearGradient></defs><g id="Layer_2" data-name="Layer 2"><g id="Light_theme_icons" data-name="Light theme icons"><g class="cls-6"><rect class="cls-7" width="32" height="32"/></g><path class="cls-8" d="M28,28a3,3,0,1,1,3-3A3,3,0,0,1,28,28Zm0-4a1,1,0,1,0,1,1A1,1,0,0,0,28,24Z"/><path class="cls-8" d="M16,7a3,3,0,1,1,3-3A3,3,0,0,1,16,7Zm0-4a1,1,0,1,0,1,1A1,1,0,0,0,16,3Z"/><path class="cls-8" d="M4,28a3,3,0,1,1,3-3A3,3,0,0,1,4,28Zm0-4a1,1,0,1,0,1,1A1,1,0,0,0,4,24Z"/></g></g></svg>
